X: 20
T: JIGS: Lounge Bar Set
T: Henry Blogg
C: C: Andy Cutting / Annlaug Børsheim; S: Leveret / Annlaug Børsheim & Rannveig Djönne
C: Set Leaders: Sophie, Anton
Z: Anton Zille ed., Oleg Naumov arr.; Bregolas / Tom L at The Session
N: https://thesession.org/members/26966/sets/92009
R: Jig
M: 6/8
L: 1/8
Q: 3/8=116
K: Dmaj
|:"D"F2A GFE|FGA d2e|"(Bm)"fdA B2A|"G"B2A "(A)"GFE|
"D"F2A "D/B"GFE|"D"FGA d2e|"(Bm)"fdA B2A|1 "G"GFE "(A)"D2E:|2 "G"GFE "D"DFA||
|:"G"B2B BAG|"D"A2A AGF|"Em"E2E EDE|"Bm"F2D "D"DEF|
"G"GFG BAG|"D/F#"FAD B2A|1 "G"G2F EFG|"A"A2F FGA:|2 "A"G2F EFE|"D"DFE D2||
T: Lounge Bar
K: Dmaj
A,|:"Bm"B,DF E2D-|DFA d2c|"G"BGB "D"AFD|"A"EGF E2D|
"Bm"B,DF E2D-|DFA d2c|"G"BGB "D"AFD|1 "A"E2D "D"D2A,:|2 "A"E2D DFA||
|:"D"d3 dcA|"D/F#"F3 FEF|"G"GBd dcA|"A"E3 EDE|
"D"F3 FED|"G"B,3 B,A,B,|"G"CDE "A"EFE|1 "D"D3 DFA:|2 "D"D3 D2c||
|:"Bm"dBd c2B-|Bdf e2c|"G"dcB "D"AdB|"A"AFD E2c|
"Bm"dBd c2B-|Bdf e2c|"G"dcB "D"AFD|1 "A"E2D "D"D2 c:|2 "A"E2D DFA||
|:"D"d3 dcA|"D/F#"F3 FEF|"G"GBd dcA|"A"E3 EDE|
"D"F3 FED|"G"B,3 B,A,B,|"G"CDE "A"EFE|1 "D"D3 DFA:|2 "D"D6||

